svg/Pictogram/pictograms-nps-misc-fire_extinguisher.svg

<svg xmlns="http://www.w3.org/2000/svg" viewBox="0 0 256 256"><path d="m0 0c-.54 0-.979-.44-.979-.981v-7.522c0-.54.439-.979.979-.979h7.521c.542 0 .982.439.982.979v7.522c0 .541-.44.981-.982.981h-7.521" fill="#fff" transform="matrix(25.90307 0 0-25.90307 30.553 5.191)"/><path d="m0 0c.652 0 1.182.527 1.182 1.18v7.521c0 .653-.53 1.182-1.182 1.182h-7.521c-.653 0-1.18-.529-1.18-1.182v-7.521c0-.653.527-1.18 1.18-1.18h7.521" transform="matrix(25.90307 0 0-25.90307 225.38 256)"/><path d="m0 0c.148 0 .268.121.268.268 0 .148-.12.269-.268.269-.146 0-.268-.121-.268-.269 0-.147.122-.268.268-.268m.092-.5c-.621-.154-.83-.479-1.016-.742-.185-.266-.549-.043-.416.221.094.277.576.73.934.863-.09.054-.192.215-.192.392 0 .377.287.625.608.625.328 0 .558-.271.558-.484h.272v-.34h.939v.217l2.311.336v-1.586l-2.311.35v.201h-.943l-.002-.476c.26-.049.939-.465.939-1.271v-4.692c0-.115-.054-.31-.287-.31h-2.066c-.233 0-.287.195-.287.31v4.692c0 .806.705 1.222.961 1.271l-.002.423z" fill="#fff" transform="matrix(25.90307 0 0-25.90307 101.79 44.17)"/></svg>

<?xml version="1.0" encoding="UTF-8" standalone="no"?>
<!-- Created with Inkscape (http://www.inkscape.org/) -->
<svg
   xmlns:dc="http://purl.org/dc/elements/1.1/"
   xmlns:cc="http://creativecommons.org/ns#"
   xmlns:rdf="http://www.w3.org/1999/02/22-rdf-syntax-ns#"
   xmlns:svg="http://www.w3.org/2000/svg"
   xmlns="http://www.w3.org/2000/svg"
   xmlns:sodipodi="http://sodipodi.sourceforge.net/DTD/sodipodi-0.dtd"
   xmlns:inkscape="http://www.inkscape.org/namespaces/inkscape"
   width="256"
   height="256"
   id="svg5294"
   sodipodi:version="0.32"
   inkscape:version="0.46"
   version="1.0"
   sodipodi:docname="pictograms-nps-fire_extinguisher-2.svg"
   inkscape:output_extension="org.inkscape.output.svg.inkscape">
  <defs
     id="defs5296">
    <inkscape:perspective
       sodipodi:type="inkscape:persp3d"
       inkscape:vp_x="0 : 526.18109 : 1"
       inkscape:vp_y="0 : 1000 : 0"
       inkscape:vp_z="744.09448 : 526.18109 : 1"
       inkscape:persp3d-origin="372.04724 : 350.78739 : 1"
       id="perspective5302" />
  </defs>
  <sodipodi:namedview
     id="base"
     pagecolor="#ffffff"
     bordercolor="#666666"
     borderopacity="1.0"
     gridtolerance="10000"
     guidetolerance="10"
     objecttolerance="10"
     inkscape:pageopacity="0.0"
     inkscape:pageshadow="2"
     inkscape:zoom="0.98994949"
     inkscape:cx="112.80911"
     inkscape:cy="62.857143"
     inkscape:document-units="px"
     inkscape:current-layer="layer1"
     showgrid="false"
     inkscape:window-width="725"
     inkscape:window-height="674"
     inkscape:window-x="1"
     inkscape:window-y="309" />
  <metadata
     id="metadata5299">
    <rdf:RDF>
      <cc:Work
         rdf:about="">
        <dc:format>image/svg+xml</dc:format>
        <dc:type
           rdf:resource="http://purl.org/dc/dcmitype/StillImage" />
      </cc:Work>
    </rdf:RDF>
  </metadata>
  <g
     inkscape:label="Layer 1"
     inkscape:groupmode="layer"
     id="layer1">
    <g
       id="g4732"
       transform="matrix(25.903066,0,0,-25.903066,30.55277,5.1909744)">
      <path
         d="M 0,0 C -0.54,0 -0.979,-0.44 -0.979,-0.981 L -0.979,-8.503 C -0.979,-9.043 -0.54,-9.482 0,-9.482 L 7.521,-9.482 C 8.063,-9.482 8.503,-9.043 8.503,-8.503 L 8.503,-0.981 C 8.503,-0.44 8.063,0 7.521,0 L 0,0 z"
         style="fill:#ffffff;fill-opacity:1;fill-rule:nonzero;stroke:none"
         id="path4734" />
    </g>
    <g
       id="g4736"
       transform="matrix(25.903066,0,0,-25.903066,225.38258,256)">
      <path
         d="M 0,0 C 0.652,0 1.182,0.527 1.182,1.18 L 1.182,8.701 C 1.182,9.354 0.652,9.883 0,9.883 L -7.521,9.883 C -8.174,9.883 -8.701,9.354 -8.701,8.701 L -8.701,1.18 C -8.701,0.527 -8.174,0 -7.521,0 L 0,0 z"
         style="fill:#000000;fill-opacity:1;fill-rule:nonzero;stroke:none"
         id="path4738" />
    </g>
    <g
       id="g4740"
       transform="matrix(25.903066,0,0,-25.903066,101.7862,44.169701)">
      <path
         d="M 0,0 C 0.148,0 0.268,0.121 0.268,0.268 C 0.268,0.416 0.148,0.537 0,0.537 C -0.146,0.537 -0.268,0.416 -0.268,0.268 C -0.268,0.121 -0.146,0 0,0 M 0.092,-0.5 C -0.529,-0.654 -0.738,-0.979 -0.924,-1.242 C -1.109,-1.508 -1.473,-1.285 -1.34,-1.021 C -1.246,-0.744 -0.764,-0.291 -0.406,-0.158 C -0.496,-0.104 -0.598,0.057 -0.598,0.234 C -0.598,0.611 -0.311,0.859 0.01,0.859 C 0.338,0.859 0.568,0.588 0.568,0.375 L 0.84,0.375 L 0.84,0.035 L 1.779,0.035 L 1.779,0.252 L 4.09,0.588 L 4.09,-0.998 L 1.779,-0.648 L 1.779,-0.447 L 0.836,-0.447 L 0.834,-0.923 C 1.094,-0.972 1.773,-1.388 1.773,-2.194 L 1.773,-6.886 C 1.773,-7.001 1.719,-7.196 1.486,-7.196 L -0.58,-7.196 C -0.813,-7.196 -0.867,-7.001 -0.867,-6.886 L -0.867,-2.194 C -0.867,-1.388 -0.162,-0.972 0.094,-0.923 L 0.092,-0.5 z"
         style="fill:#ffffff;fill-opacity:1;fill-rule:nonzero;stroke:none"
         id="path4742" />
    </g>
  </g>
</svg>
